Flat-Remix/apps/scalable/steam_icon_286690.svg

<svg xmlns="http://www.w3.org/2000/svg" xmlns:xlink="http://www.w3.org/1999/xlink" width="512" height="512" version="1.1" viewBox="0 0 384 384"> <defs> <filter id="alpha" width="100%" height="100%" x="0%" y="0%" filterUnits="objectBoundingBox"> <feColorMatrix in="SourceGraphic" type="matrix" values="0 0 0 0 1 0 0 0 0 1 0 0 0 0 1 0 0 0 1 0"/> </filter> <mask id="mask0"> <g filter="url(#alpha)"> <rect width="384" height="384" x="0" y="0" style="fill:rgb(0%,0%,0%);fill-opacity:0.501961"/> </g> </mask> <clipPath id="clip1"> <rect width="384" height="384" x="0" y="0"/> </clipPath> <g id="surface5" clip-path="url(#clip1)"> <path style="fill:rgb(83.137%,9.803%,9.803%)" d="M 30.742188 247.246094 L 30.742188 290.402344 L 353.253906 290.402344 L 353.253906 247.246094 Z M 239.578125 254.160156 L 243.855469 254.160156 L 243.855469 276.824219 L 240.070312 283.378906 L 227.050781 283.378906 L 222.683594 275.816406 L 222.683594 255.144531 L 227.480469 255.308594 L 227.480469 275.28125 L 229.40625 278.710938 L 237.527344 278.710938 L 239.578125 275.160156 Z M 107.574219 254.460938 C 112.238281 254.460938 116.019531 258.179688 116.019531 262.761719 C 116.015625 266.40625 113.59375 269.621094 110.046875 270.691406 L 118.179688 281.066406 L 118.179688 282.707031 L 111.617188 282.707031 L 103.414062 271.386719 L 99.476562 271.386719 L 99.476562 282.707031 L 94.554688 282.707031 L 94.554688 254.652344 C 94.554688 254.652344 103.359375 254.507812 106.859375 254.496094 C 107.097656 254.472656 107.335938 254.460938 107.574219 254.460938 Z M 138.683594 254.488281 L 158.042969 254.488281 L 158.042969 259.738281 L 144.425781 259.738281 L 144.425781 266.136719 L 157.878906 266.136719 L 157.878906 270.839844 L 144.261719 270.839844 L 144.261719 277.457031 L 158.207031 277.457031 L 158.207031 282.378906 L 138.683594 282.378906 Z M 195.574219 254.53125 L 201.601562 260.558594 L 201.601562 277.046875 L 196.105469 282.542969 L 179.863281 282.542969 L 179.863281 254.980469 Z M 280.59375 254.621094 L 287.097656 254.621094 L 278.910156 268.804688 L 286.5 281.949219 L 280.605469 281.949219 L 275.027344 272.285156 L 269.4375 281.964844 L 263.878906 281.964844 L 271.585938 268.613281 L 264.1875 254.980469 L 269.863281 255.226562 L 275.054688 264.214844 Z M 103.734375 258.640625 C 102.273438 258.644531 100.804688 258.652344 99.355469 258.652344 L 99.355469 266.953125 C 102.210938 266.871094 105.355469 267.101562 108.070312 266.878906 C 109.957031 266.574219 111.355469 264.832031 111.355469 262.78125 C 111.355469 260.730469 109.957031 258.988281 108.070312 258.683594 L 108.070312 258.652344 C 106.644531 258.636719 105.191406 258.636719 103.734375 258.640625 Z M 184.292969 259.738281 L 184.292969 277.292969 L 193.972656 277.292969 L 196.597656 274.667969 L 196.597656 262.199219 L 194.21875 259.820312 Z M 184.292969 259.738281"/> </g> </defs> <g> <path style="fill-rule:evenodd;fill:rgb(58.431%,7.058%,7.058%)" d="M 368.015625 285.894531 L 353.148438 290.433594 L 353.148438 285.847656 Z M 368.015625 285.894531"/> <path style="fill-rule:evenodd;fill:rgb(58.431%,7.058%,7.058%)" d="M 15.921875 285.859375 L 30.800781 290.34375 L 30.800781 285.859375 Z M 15.921875 285.859375"/> <path style="fill:rgb(0%,0%,0%)" d="M 30.75 60.75 L 353.25 60.75 L 353.25 323.25 L 30.75 323.25 Z M 30.75 60.75"/> <use mask="url(#mask0)" xlink:href="#surface5"/> <path style="fill:rgb(83.137%,9.803%,9.803%)" d="M 15.894531 242.746094 L 15.894531 285.902344 L 368.015625 285.902344 L 368.015625 242.746094 Z M 239.578125 249.660156 L 243.855469 249.660156 L 243.855469 272.324219 L 240.070312 278.878906 L 227.050781 278.878906 L 222.683594 271.316406 L 222.683594 250.644531 L 227.480469 250.808594 L 227.480469 270.78125 L 229.40625 274.210938 L 237.527344 274.210938 L 239.578125 270.660156 Z M 107.574219 249.960938 C 112.238281 249.960938 116.019531 253.679688 116.019531 258.261719 C 116.015625 261.90625 113.59375 265.121094 110.046875 266.191406 L 118.179688 276.566406 L 118.179688 278.207031 L 111.617188 278.207031 L 103.414062 266.886719 L 99.476562 266.886719 L 99.476562 278.207031 L 94.554688 278.207031 L 94.554688 250.152344 C 94.554688 250.152344 103.359375 250.007812 106.859375 249.996094 C 107.097656 249.972656 107.335938 249.960938 107.574219 249.960938 Z M 138.683594 249.988281 L 158.042969 249.988281 L 158.042969 255.238281 L 144.425781 255.238281 L 144.425781 261.636719 L 157.878906 261.636719 L 157.878906 266.339844 L 144.261719 266.339844 L 144.261719 272.957031 L 158.207031 272.957031 L 158.207031 277.878906 L 138.683594 277.878906 Z M 195.574219 250.03125 L 201.601562 256.058594 L 201.601562 272.546875 L 196.105469 278.042969 L 179.863281 278.042969 L 179.863281 250.480469 Z M 280.59375 250.121094 L 287.097656 250.121094 L 278.910156 264.304688 L 286.5 277.449219 L 280.605469 277.449219 L 275.027344 267.785156 L 269.4375 277.464844 L 263.878906 277.464844 L 271.585938 264.113281 L 264.1875 250.480469 L 269.863281 250.726562 L 275.054688 259.714844 Z M 103.734375 254.140625 C 102.273438 254.144531 100.804688 254.152344 99.355469 254.152344 L 99.355469 262.453125 C 102.210938 262.371094 105.355469 262.601562 108.070312 262.378906 C 109.957031 262.074219 111.355469 260.332031 111.355469 258.28125 C 111.355469 256.230469 109.957031 254.488281 108.070312 254.183594 L 108.070312 254.152344 C 106.644531 254.136719 105.191406 254.136719 103.734375 254.140625 Z M 184.292969 255.238281 L 184.292969 272.792969 L 193.972656 272.792969 L 196.597656 270.167969 L 196.597656 257.699219 L 194.21875 255.320312 Z M 184.292969 255.238281"/> <path style="fill-rule:evenodd;fill:rgb(100.000%,100.000%,100.000%)" d="M 292.835938 112.164062 C 277.4375 112.75 263.953125 122.679688 258.824219 137.210938 C 258.757812 136.140625 258.640625 135.035156 258.449219 133.871094 C 255.386719 115.492188 237.964844 114.34375 233.65625 114.34375 C 233.042969 114.34375 232.691406 114.367188 232.691406 114.367188 L 130.175781 114.367188 L 129.960938 130.871094 L 168.929688 130.871094 L 168.929688 184.628906 L 189.683594 184.628906 L 189.683594 130.621094 L 230.882812 130.621094 C 231.191406 130.582031 231.503906 130.558594 231.816406 130.554688 C 236.460938 130.554688 240.226562 134.320312 240.226562 138.964844 C 240.222656 143.558594 236.535156 147.300781 231.941406 147.371094 L 231.941406 147.375 L 215.441406 147.375 L 215.441406 134.621094 L 196.9375 134.621094 L 196.9375 184.878906 L 215.441406 184.878906 L 215.441406 163.878906 L 224.691406 163.878906 L 238.691406 184.628906 L 259.949219 184.628906 L 243.695312 160.625 C 243.695312 160.625 252.464844 157.855469 256.679688 149.160156 C 256.675781 149.339844 256.671875 149.519531 256.671875 149.695312 C 256.695312 169.882812 272.664062 186.445312 292.835938 187.207031 L 292.835938 169.878906 C 282.234375 169.136719 274.007812 160.324219 273.996094 149.695312 C 274 139.058594 282.226562 130.238281 292.835938 129.492188 Z M 295.667969 112.1875 L 295.667969 129.511719 C 306.269531 130.253906 314.496094 139.066406 314.507812 149.695312 C 314.507812 160.332031 306.277344 169.15625 295.667969 169.898438 L 295.667969 187.226562 C 315.847656 186.46875 331.820312 169.894531 331.832031 149.695312 C 331.808594 129.507812 315.839844 112.945312 295.667969 112.1875 Z M 107.167969 114.867188 L 89.167969 141.496094 L 73.164062 114.992188 L 52.160156 115.242188 L 89.542969 171 L 107.671875 145.371094 L 107.917969 185.378906 L 127.550781 185.253906 L 127.675781 157.5 L 161.554688 157.5 L 161.554688 142.246094 L 127.421875 142.246094 L 127.296875 114.867188 Z M 51.910156 118.867188 L 52.035156 184.378906 L 71.539062 184.628906 L 71.664062 148.375 Z M 130.402344 167.753906 L 130.1875 185.003906 L 165.679688 185.003906 L 165.679688 167.753906 Z M 68.894531 192.050781 L 64.046875 201.5 L 53.515625 202.863281 L 61 210.394531 L 59.042969 220.828125 L 68.515625 216.039062 L 77.835938 221.128906 L 76.207031 210.632812 L 83.929688 203.34375 L 73.445312 201.648438 Z M 317.058594 192.089844 L 312.207031 201.539062 L 301.675781 202.898438 L 309.164062 210.433594 L 307.203125 220.867188 L 316.679688 216.078125 L 326 221.164062 L 324.371094 210.671875 L 332.089844 203.382812 L 321.605469 201.6875 Z M 149.125 193.261719 L 149.125 220.003906 L 184.347656 220.003906 L 184.347656 193.632812 Z M 204.261719 193.261719 L 204.449219 199.71875 L 223.257812 199.71875 L 214.40625 203.40625 L 214.40625 209.675781 L 226.207031 209.675781 L 226.207031 213.546875 L 204.632812 213.546875 L 204.632812 220.1875 L 237.085938 220.1875 L 237.085938 203.589844 L 228.421875 203.589844 L 236.535156 199.53125 L 236.535156 193.261719 Z M 93.890625 193.542969 L 93.75 202.738281 L 104.003906 202.738281 L 104.003906 199.023438 L 120.09375 199.023438 L 120.09375 201.148438 L 93.925781 208.398438 L 93.925781 219.359375 L 131.058594 219.359375 L 131.058594 213.878906 L 104.710938 213.878906 L 104.710938 212.285156 L 131.226562 205.183594 L 131.226562 193.542969 Z M 257.933594 193.632812 L 258.117188 200.085938 L 276.929688 200.085938 L 268.074219 203.773438 L 268.074219 210.042969 L 279.878906 210.042969 L 279.878906 213.917969 L 258.300781 213.917969 L 258.300781 220.554688 L 290.757812 220.554688 L 290.757812 203.957031 L 282.089844 203.957031 L 290.203125 199.902344 L 290.203125 193.632812 Z M 159.449219 199.53125 L 173.652344 199.902344 L 173.652344 213.363281 L 159.449219 213.363281 Z M 159.449219 199.53125"/> </g> </svg>

<svg width="512" height="512" version="1.1" viewBox="0 0 384 384" xmlns="http://www.w3.org/2000/svg" xmlns:xlink="http://www.w3.org/1999/xlink"><path d="m30.75 68.25h322.5v262.5h-322.5z" opacity=".3"/><path d="m368.02 285.89-14.867 4.5391v-4.5859z" fill="#941111" fill-rule="evenodd"/><path d="m15.922 285.86 14.879 4.4844v-4.4844z" fill="#941111" fill-rule="evenodd"/><path d="m30.75 60.75h322.5v262.5h-322.5z"/><path d="m15.895 242.75v43.156h352.12v-43.156zm223.68 6.9141h4.2773v22.664l-3.7852 6.5547h-13.02l-4.3672-7.5625v-20.672l4.7969 0.16406v19.973l1.9258 3.4297h8.1211l2.0508-3.5508zm-132 0.30078c4.6641 0 8.4453 3.7188 8.4453 8.3008-0.003906 3.6445-2.4258 6.8594-5.9727 7.9297l8.1328 10.375v1.6406h-6.5625l-8.2031-11.32h-3.9375v11.32h-4.9219v-28.055s8.8047-0.14453 12.305-0.15625c0.23828-0.023438 0.47656-0.035156 0.71484-0.035156zm31.109 0.027343h19.359v5.25h-13.617v6.3984h13.453v4.7031h-13.617v6.6172h13.945v4.9219h-19.523zm56.891 0.042969 6.0273 6.0273v16.488l-5.4961 5.4961h-16.242v-27.562zm85.02 0.089844h6.5039l-8.1875 14.184 7.5898 13.145h-5.8945l-5.5781-9.6641-5.5898 9.6797h-5.5586l7.707-13.352-7.3984-13.633 5.6758 0.24609 5.1914 8.9883zm-176.86 4.0195c-1.4609 0.003906-2.9297 0.011719-4.3789 0.011719v8.3008c2.8555-0.082031 6 0.14844 8.7148-0.074219 1.8867-0.30469 3.2852-2.0469 3.2852-4.0977s-1.3984-3.793-3.2852-4.0977v-0.03125c-1.4258-0.015625-2.8789-0.015625-4.3359-0.011719zm80.559 1.0977v17.555h9.6797l2.625-2.625v-12.469l-2.3789-2.3789z" fill="#d31818"/><path d="m292.84 112.16c-15.398 0.58594-28.883 10.516-34.012 25.047-0.066407-1.0703-0.18359-2.1758-0.375-3.3398-3.0625-18.379-20.484-19.527-24.793-19.527-0.61328 0-0.96484 0.023438-0.96484 0.023438h-102.52l-0.21484 16.504h38.969v53.758h20.754v-54.008h41.199c0.30859-0.039063 0.62109-0.0625 0.93359-0.066406 4.6445 0 8.4102 3.7656 8.4102 8.4102-0.003906 4.5938-3.6914 8.3359-8.2852 8.4062v0.003906h-16.5v-12.754h-18.504v50.258h18.504v-21h9.25l14 20.75h21.258l-16.254-24.004s8.7695-2.7695 12.984-11.465c-0.003907 0.17969-0.007813 0.35938-0.007813 0.53516 0.023437 20.188 15.992 36.75 36.164 37.512v-17.328c-10.602-0.74219-18.828-9.5547-18.84-20.184 0.003906-10.637 8.2305-19.457 18.84-20.203zm2.832 0.023438v17.324c10.602 0.74219 18.828 9.5547 18.84 20.184 0 10.637-8.2305 19.461-18.84 20.203v17.328c20.18-0.75781 36.152-17.332 36.164-37.531-0.023437-20.188-15.992-36.75-36.164-37.508zm-188.5 2.6797-18 26.629-16.004-26.504-21.004 0.25 37.383 55.758 18.129-25.629 0.24609 40.008 19.633-0.125 0.125-27.754h33.879v-15.254h-34.133l-0.125-27.379zm-55.258 4 0.125 65.512 19.504 0.25 0.125-36.254zm78.492 48.887-0.21484 17.25h35.492v-17.25zm-61.508 24.297-4.8477 9.4492-10.531 1.3633 7.4844 7.5312-1.957 10.434 9.4727-4.7891 9.3203 5.0898-1.6289-10.496 7.7227-7.2891-10.484-1.6953zm248.16 0.039063-4.8516 9.4492-10.531 1.3594 7.4883 7.5352-1.9609 10.434 9.4766-4.7891 9.3203 5.0859-1.6289-10.492 7.7188-7.2891-10.484-1.6953zm-167.93 1.1719v26.742h35.223v-26.371zm55.137 0 0.1875 6.457h18.809l-8.8516 3.6875v6.2695h11.801v3.8711h-21.574v6.6406h32.453v-16.598h-8.6641l8.1133-4.0586v-6.2695zm-110.37 0.28125-0.14062 9.1953h10.254v-3.7148h16.09v2.125l-26.168 7.25v10.961h37.133v-5.4805h-26.348v-1.5938l26.516-7.1016v-11.641zm164.04 0.089843 0.18359 6.4531h18.812l-8.8555 3.6875v6.2695h11.805v3.875h-21.578v6.6367h32.457v-16.598h-8.668l8.1133-4.0547v-6.2695zm-98.484 5.8984 14.203 0.37109v13.461h-14.203z" fill="#fff" fill-rule="evenodd"/><g id="a" clip-path="url(#c)"><path d="m30.742 247.25v43.156h322.51v-43.156zm208.84 6.9141h4.2773v22.664l-3.7852 6.5547h-13.02l-4.3672-7.5625v-20.672l4.7969 0.16406v19.973l1.9258 3.4297h8.1211l2.0508-3.5508zm-132 0.30078c4.6641 0 8.4453 3.7188 8.4453 8.3008-0.003906 3.6445-2.4258 6.8594-5.9727 7.9297l8.1328 10.375v1.6406h-6.5625l-8.2031-11.32h-3.9375v11.32h-4.9219v-28.055s8.8047-0.14453 12.305-0.15625c0.23828-0.023438 0.47656-0.035156 0.71484-0.035156zm31.109 0.027343h19.359v5.25h-13.617v6.3984h13.453v4.7031h-13.617v6.6172h13.945v4.9219h-19.523zm56.891 0.042969 6.0273 6.0273v16.488l-5.4961 5.4961h-16.242v-27.562zm85.02 0.089844h6.5039l-8.1875 14.184 7.5898 13.145h-5.8945l-5.5781-9.6641-5.5898 9.6797h-5.5586l7.707-13.352-7.3984-13.633 5.6758 0.24609 5.1914 8.9883zm-176.86 4.0195c-1.4609 0.003906-2.9297 0.011719-4.3789 0.011719v8.3008c2.8555-0.082031 6 0.14844 8.7148-0.074219 1.8867-0.30469 3.2852-2.0469 3.2852-4.0977s-1.3984-3.793-3.2852-4.0977v-0.03125c-1.4258-0.015625-2.8789-0.015625-4.3359-0.011719zm80.559 1.0977v17.555h9.6797l2.625-2.625v-12.469l-2.3789-2.3789z" fill="#d31616" opacity=".3"/></g></svg>
